X: 11047
T: Dublin Porter, The
R: reel
M: 4/4
K: Gmajor
~B3A BcdB|cBAB cde^c|d2de d^cAG|FDAD BDAF|
DBBA BcdB|cBAB cdef|g2fg ecAF|1 GBAF G3A:|2 GBAF GABd||
|:g3f gdBd|g2fg eA~A2|eA~A2 eAAe|fgaf gfef|
g2gf gdBd|g2fg eA~A2|eA~A2 eA~A2|1 fgaf gdef:|2 fgaf gedB||

